svg/color/hwhlp.svg

<svg width="80" height="80" viewBox="0 0 80 80" fill="none" xmlns="http://www.w3.org/2000/svg">
<g clip-path="url(#clip0_133_192)">
<path d="M40 80C62.1668 80 80 62.1668 80 40C80 17.8332 62.1668 0 40 0C17.8332 0 0 17.8332 0 40C0 62.1668 17.8332 80 40 80Z" fill="#051212"/>
<path d="M40 80C62.1668 80 80 62.1668 80 40C80 17.8332 62.1668 0 40 0C17.8332 0 0 17.8332 0 40C0 62.1668 17.8332 80 40 80Z" fill="url(#paint0_linear_133_192)"/>
<path d="M6 40C5.99999 49.2047 9.68264 57.5251 15.6143 63.6338L16.1953 64.2178C22.2904 70.2021 30.4269 73.772 39.1543 73.9893L40 74C48.7632 74 56.9828 70.6168 63.208 64.7891L63.8037 64.2178C70.075 58.0608 74 49.5015 74 40C74 30.4985 70.075 21.9393 63.8037 15.7822L63.208 15.2109C56.9828 9.38357 48.7632 6.00001 40 6L40 5L40.8721 5.01075C49.5682 5.2274 57.6921 8.67843 63.8906 14.4805L64.5049 15.0684C70.7562 21.2058 74.7451 29.6684 74.9883 39.0859L75 40C75 49.4777 71.2063 58.0442 65.1025 64.3301L64.5049 64.9307C58.0316 71.2864 49.3152 75 40 75L39.1289 74.9893C30.1418 74.7655 21.7662 71.0878 15.4951 64.9307C9.04246 58.5954 4.99999 49.7834 5 40L5.01171 39.0859C5.25484 29.6684 9.24405 21.2058 15.4951 15.0684L16.1084 14.4805C22.5136 8.48462 30.9754 5.0001 40 5L40 6C30.9535 6.0001 22.4868 9.60501 16.1953 15.7822L15.6143 16.3662C9.6827 22.475 6 30.7954 6 40Z" fill="url(#paint1_linear_133_192)"/>
<path d="M0.999996 40C0.999995 50.5586 5.22475 60.1027 12.0283 67.1094L12.6943 67.7793C19.6852 74.6431 29.0182 78.739 39.0293 78.9883L40 79C50.0524 79 59.4808 75.1189 66.6211 68.4346L67.3047 67.7793C74.4978 60.7172 79 50.8991 79 40C79 29.101 74.4978 19.2829 67.3047 12.2207L66.6211 11.5654C59.4808 4.88149 50.0524 1.00001 40 1L40 4.13248e-06L40.9961 0.0126995C50.9348 0.260175 60.2196 4.20386 67.3037 10.835L68.0049 11.5068C75.1492 18.521 79.7084 28.1922 79.9863 38.9551L80 40C80 50.8317 75.6642 60.6218 68.6885 67.8057L68.0049 68.4932C60.6068 75.7566 50.6458 80 40 80L39.0039 79.9873C28.7333 79.7314 19.1609 75.5295 11.9941 68.4932C4.61966 61.2528 -5.10996e-06 51.1811 -4.13248e-06 40L0.0136678 38.9551C0.2916 28.1923 4.85013 18.521 11.9941 11.5068L12.6953 10.835C20.0155 3.98252 29.6861 0.000110042 40 4.13248e-06L40 1C29.6226 1.00011 19.9106 5.13552 12.6943 12.2207L12.0283 12.8906C5.22481 19.8974 0.999997 29.4415 0.999996 40Z" fill="#21F1A6"/>
<path d="M75 40C75 30.5317 71.2155 21.9711 65.1025 15.6758L64.5039 15.0742C58.2202 8.90471 49.8453 5.23413 40.8701 5.01074L40 5C30.9887 5.00001 22.5294 8.47715 16.1123 14.4844L15.4971 15.0742C9.03326 21.4204 5 30.2266 5 40C5 49.7731 9.03264 58.5796 15.4961 64.9258H15.4971C21.9837 71.2941 30.6979 75 40 75V79L39.0283 78.9883C29.3382 78.7469 20.2859 74.9009 13.3789 68.4355L12.6953 67.7803C5.50496 60.7208 1 50.9016 1 40C1 29.439 5.2279 19.8939 12.0293 12.8896L12.6953 12.2197C19.9084 5.13769 29.6202 1.00002 40 1L40.9707 1.01172C50.9848 1.26108 60.3179 5.35899 67.3057 12.2197C74.4958 19.2791 79 29.0985 79 40C79 50.9015 74.4958 60.7208 67.3057 67.7803L66.6221 68.4355C59.4849 75.1168 50.0561 78.9999 40 79V75C49.3031 74.9999 58.0176 71.2952 64.5039 64.9268L65.1025 64.3242C71.2154 58.0288 75 49.4682 75 40Z" fill="url(#paint2_linear_133_192)"/>
<path d="M39.9997 14C46.9202 14 53.3952 16.7584 58.2039 21.4797C62.9973 26.186 66 32.7323 66 40C66 47.2677 62.9973 53.8141 58.2039 58.5204C53.3952 63.2418 46.9202 66 39.9997 66C33.0799 66 26.6055 63.2414 21.7967 58.5204C17.0031 53.8141 14 47.2677 14 40C14 32.7323 17.0031 26.186 21.7967 21.4797C26.6055 16.7584 33.0799 14 39.9997 14Z" fill="#051212"/>
<path d="M65 40C65 33.2326 62.2926 27.1153 57.9307 22.623L57.5029 22.1934C53.0205 17.7925 47.0383 15.1676 40.6221 15.0078L40 15C33.5572 15 27.5137 17.4875 22.9355 21.7734L22.4971 22.1934C17.8852 26.7213 15 33.0143 15 40C15 46.9856 17.8852 53.2786 22.4971 57.8066L22.9355 58.2275C27.5137 62.5129 33.5574 65 40 65V66L39.3525 65.9922C32.8922 65.8313 26.8567 63.2675 22.252 58.957L21.7969 58.5205C17.1532 53.9614 14.1896 47.6754 14.0088 40.6797L14 40C14 32.9595 16.8185 26.5962 21.3525 21.9268L21.7969 21.4795C26.6056 16.7582 33.0802 14 40 14L40.6475 14.0078C47.3234 14.1741 53.5457 16.9057 58.2041 21.4795C62.9975 26.1857 66 32.7323 66 40L65.9912 40.6787C65.8107 47.6747 62.8478 53.9612 58.2041 58.5205L57.7481 58.957C52.9899 63.4112 46.7041 65.9999 40 66V65C46.651 64.9999 52.876 62.3495 57.5029 57.8066L57.9307 57.3769C62.2926 52.8846 65 46.7673 65 40Z" fill="url(#paint3_linear_133_192)"/>
<path d="M50 45.9501C50 40.5768 46.8657 38.7345 40.597 37.967C36.1193 37.3528 35.2238 36.1247 35.2238 33.9751C35.2238 31.8254 36.7165 30.4441 39.7014 30.4441C42.388 30.4441 43.8807 31.3652 44.6268 33.6681C44.7762 34.1287 45.224 34.4356 45.6717 34.4356H48.0596C48.6567 34.4356 49.1045 33.9751 49.1045 33.3612V33.2076C48.5073 29.8298 45.8208 27.22 42.388 26.9131V23.2285C42.388 22.6142 41.9403 22.1536 41.1941 22H38.9553C38.3581 22 37.9104 22.4606 37.761 23.2285V26.7594C33.2834 27.3737 30.4478 30.4441 30.4478 34.2824C30.4478 39.3487 33.4327 41.3443 39.7014 42.1122C43.8807 42.8797 45.224 43.8009 45.224 46.2574C45.224 48.714 43.1342 50.4026 40.2986 50.4026C36.4177 50.4026 35.0744 48.7136 34.6267 46.4107C34.4776 45.7968 34.0299 45.4895 33.5821 45.4895H31.0445C30.4478 45.4895 30 45.9501 30 46.5644V46.718C30.5968 50.5559 32.985 53.3194 37.9104 54.0873V57.7719C37.9104 58.3858 38.3581 58.8464 39.1043 59H41.3431C41.9402 59 42.388 58.5394 42.5374 57.7719V54.0873C47.015 53.3194 50 50.0953 50 45.9501Z" fill="#21F1A6"/>
</g>
<defs>
<linearGradient id="paint0_linear_133_192" x1="0" y1="40" x2="80" y2="40" gradientUnits="userSpaceOnUse">
<stop stop-color="#97FCE4"/>
<stop offset="1" stop-color="#97FCE4" stop-opacity="0.2"/>
</linearGradient>
<linearGradient id="paint1_linear_133_192" x1="3.41145" y1="40.9012" x2="69.0044" y2="40.9012" gradientUnits="userSpaceOnUse">
<stop stop-color="#21F1A6" stop-opacity="0.6"/>
<stop offset="1" stop-color="#21F1A6" stop-opacity="0.2"/>
</linearGradient>
<linearGradient id="paint2_linear_133_192" x1="80.7701" y1="38.9958" x2="-51" y2="38.9958" gradientUnits="userSpaceOnUse">
<stop stop-color="#051212"/>
<stop offset="1" stop-color="#051212" stop-opacity="0.76"/>
</linearGradient>
<linearGradient id="paint3_linear_133_192" x1="67.1801" y1="39.3306" x2="18.4538" y2="39.3306" gradientUnits="userSpaceOnUse">
<stop stop-color="#21F1A6"/>
<stop offset="1" stop-color="#21F1A6" stop-opacity="0"/>
</linearGradient>
<clipPath id="clip0_133_192">
<rect width="80" height="80" fill="white"/>
</clipPath>
</defs>
</svg>

<svg xmlns="http://www.w3.org/2000/svg" width="80" height="80" fill="none" viewBox="0 0 80 80"><g clip-path="url(#hwhlp_svg-a)"><path fill="#051212" d="M40 80c22.167 0 40-17.833 40-40S62.167 0 40 0 0 17.833 0 40s17.833 40 40 40"/><path fill="url(#hwhlp_svg-b)" d="M40 80c22.167 0 40-17.833 40-40S62.167 0 40 0 0 17.833 0 40s17.833 40 40 40"/><path fill="url(#hwhlp_svg-c)" d="M6 40c0 9.205 3.683 17.525 9.614 23.634l.581.584c6.095 5.984 14.232 9.554 22.96 9.771L40 74c8.763 0 16.983-3.383 23.208-9.21l.596-.572C70.075 58.06 74 49.5 74 40s-3.925-18.06-10.196-24.218l-.596-.571C56.983 9.384 48.763 6 40 6V5l.872.01c8.696.217 16.82 3.668 23.019 9.47l.614.588c6.251 6.138 10.24 14.6 10.483 24.018L75 40c0 9.478-3.794 18.044-9.897 24.33l-.598.6C58.032 71.287 49.315 75 40 75l-.871-.01c-8.987-.224-17.363-3.902-23.634-10.06C9.042 58.596 5 49.784 5 40l.012-.914c.243-9.418 4.232-17.88 10.483-24.018l.613-.588C22.514 8.485 30.975 5 40 5v1c-9.047 0-17.513 3.605-23.805 9.782l-.58.584C9.682 22.475 6 30.796 6 40"/><path fill="#21F1A6" d="M1 40c0 10.559 4.225 20.103 11.028 27.11l.666.67c6.991 6.863 16.324 10.959 26.335 11.208L40 79c10.052 0 19.48-3.881 26.621-10.565l.684-.656C74.498 60.717 79 50.9 79 40s-4.502-20.717-11.695-27.78l-.684-.655C59.481 4.881 50.052 1 40 1V0l.996.013c9.939.247 19.224 4.19 26.308 10.822l.7.672c7.145 7.014 11.704 16.685 11.982 27.448L80 40c0 10.832-4.336 20.622-11.311 27.806l-.684.687C60.607 75.757 50.645 80 40 80l-.996-.013c-10.27-.256-19.843-4.457-27.01-11.494C4.62 61.253 0 51.181 0 40l.014-1.045c.278-10.763 4.836-20.434 11.98-27.448l.701-.672C20.015 3.983 29.686 0 40 0v1C29.623 1 19.91 5.136 12.694 12.22l-.666.67C5.225 19.898 1 29.443 1 40"/><path fill="url(#hwhlp_svg-d)" d="M75 40c0-9.468-3.784-18.029-9.897-24.324l-.6-.602C58.22 8.904 49.846 5.234 40.87 5.011L40 5c-9.011 0-17.47 3.477-23.888 9.484l-.615.59C9.033 21.42 5 30.227 5 40s4.033 18.58 10.496 24.926h.001C21.984 71.294 30.697 75 40 75v4l-.972-.012c-9.69-.241-18.742-4.087-25.65-10.552l-.683-.656C5.505 60.72 1 50.902 1 40c0-10.561 4.228-20.106 11.03-27.11l.665-.67C19.908 5.138 29.62 1 40 1l.97.012c10.015.25 19.348 4.347 26.336 11.208C74.496 19.28 79 29.099 79 40s-4.504 20.72-11.694 27.78l-.684.656C59.485 75.116 50.056 79 40 79v-4c9.303 0 18.018-3.705 24.504-10.073l.599-.603C71.215 58.03 75 49.468 75 40"/><path fill="#051212" d="M40 14c6.92 0 13.395 2.758 18.204 7.48C62.997 26.186 66 32.732 66 40s-3.003 13.814-7.796 18.52C53.395 63.242 46.92 66 40 66s-13.394-2.759-18.203-7.48C17.003 53.814 14 47.268 14 40s3.003-13.814 7.797-18.52C26.605 16.758 33.08 14 40 14"/><path fill="url(#hwhlp_svg-e)" d="M65 40c0-6.767-2.707-12.885-7.07-17.377l-.427-.43c-4.483-4.4-10.465-7.025-16.88-7.185L40 15c-6.443 0-12.486 2.488-17.064 6.773l-.439.42C17.885 26.721 15 33.014 15 40s2.885 13.279 7.497 17.807l.439.42C27.514 62.514 33.557 65 40 65v1l-.648-.008c-6.46-.16-12.495-2.725-17.1-7.035l-.455-.437c-4.644-4.559-7.607-10.845-7.788-17.84L14 40c0-7.04 2.819-13.404 7.352-18.073l.445-.447C26.606 16.758 33.08 14 40 14l.648.008c6.675.166 12.898 2.898 17.556 7.472C62.998 26.186 66 32.732 66 40l-.009.679c-.18 6.996-3.143 13.282-7.787 17.841l-.456.437C52.99 63.411 46.704 66 40 66v-1c6.651 0 12.876-2.65 17.503-7.193l.428-.43C62.293 52.885 65 46.767 65 40"/><path fill="#21F1A6" d="M50 45.95c0-5.373-3.134-7.216-9.403-7.983-4.478-.614-5.373-1.842-5.373-3.992s1.493-3.53 4.477-3.53c2.687 0 4.18.92 4.926 3.223.15.46.597.768 1.045.768h2.388c.597 0 1.044-.46 1.044-1.075v-.153c-.597-3.378-3.283-5.988-6.716-6.295V23.23c0-.615-.448-1.075-1.194-1.229h-2.239c-.597 0-1.045.46-1.194 1.229v3.53c-4.478.615-7.313 3.685-7.313 7.523 0 5.067 2.985 7.062 9.253 7.83 4.18.768 5.523 1.689 5.523 4.145 0 2.457-2.09 4.146-4.925 4.146-3.881 0-5.225-1.69-5.672-3.992-.15-.614-.597-.922-1.045-.922h-2.538c-.596 0-1.044.461-1.044 1.075v.154c.597 3.838 2.985 6.601 7.91 7.37v3.684c0 .614.448 1.074 1.194 1.228h2.24c.596 0 1.044-.46 1.193-1.228v-3.685C47.015 53.32 50 50.095 50 45.95"/></g><defs><linearGradient id="hwhlp_svg-b" x1="0" x2="80" y1="40" y2="40" gradientUnits="userSpaceOnUse"><stop stop-color="#97FCE4"/><stop offset="1" stop-color="#97FCE4" stop-opacity=".2"/></linearGradient><linearGradient id="hwhlp_svg-c" x1="3.411" x2="69.004" y1="40.901" y2="40.901" gradientUnits="userSpaceOnUse"><stop stop-color="#21F1A6" stop-opacity=".6"/><stop offset="1" stop-color="#21F1A6" stop-opacity=".2"/></linearGradient><linearGradient id="hwhlp_svg-d" x1="80.77" x2="-51" y1="38.996" y2="38.996" gradientUnits="userSpaceOnUse"><stop stop-color="#051212"/><stop offset="1" stop-color="#051212" stop-opacity=".76"/></linearGradient><linearGradient id="hwhlp_svg-e" x1="67.18" x2="18.454" y1="39.331" y2="39.331" gradientUnits="userSpaceOnUse"><stop stop-color="#21F1A6"/><stop offset="1" stop-color="#21F1A6" stop-opacity="0"/></linearGradient><clipPath id="hwhlp_svg-a"><path fill="#fff" d="M0 0h80v80H0z"/></clipPath></defs></svg>
